portfolio/adventure/img/svg/dribbble.svg

<svg xmlns="http://www.w3.org/2000/svg" width="18" height="17"><path d="M17.085 6.783a8.369 8.369 0 0 0-1.3-3.036 8.573 8.573 0 0 0-2.33-2.29A8.639 8.639 0 0 0 10.366.18a8.779 8.779 0 0 0-3.476 0 8.705 8.705 0 0 0-3.089 1.277 8.588 8.588 0 0 0-2.33 2.29 8.369 8.369 0 0 0-1.3 6.452 8.341 8.341 0 0 0 1.3 3.036 8.658 8.658 0 0 0 7.157 3.739c.585 0 1.17-.057 1.738-.173a8.705 8.705 0 0 0 3.089-1.276 8.658 8.658 0 0 0 2.33-2.29 8.378 8.378 0 0 0 1.3-6.452zm-1.087 1.636c-.107-.024-2.602-.551-5.135-.238a20.905 20.905 0 0 0-.649-1.425c2.911-1.168 4.093-2.848 4.107-2.868a7.143 7.143 0 0 1 1.677 4.531zm-2.501-5.366c-.018.029-1.068 1.599-3.851 2.623A36.882 36.882 0 0 0 6.891 1.45a7.522 7.522 0 0 1 1.737-.204c1.867 0 3.57.683 4.869 1.807zM6.863 1.456l-.002.001-.022.005.024-.006zm-1.38.482A43.522 43.522 0 0 1 8.22 6.113c-3.54.923-6.612.888-6.806.885.479-2.245 2.013-4.105 4.069-5.06zM1.256 8.49c0-.077.004-.153.006-.229.13.003 3.773.084 7.569-1.032.211.406.413.82.598 1.231a7.466 7.466 0 0 0-.291.087c-3.978 1.264-5.996 4.782-5.996 4.782l.003.003A7.15 7.15 0 0 1 1.256 8.49zm7.372 7.245a7.422 7.422 0 0 1-4.531-1.533s1.413-3.029 5.786-4.526a.442.442 0 0 1 .048-.015c1.038 2.649 1.466 4.867 1.575 5.501a7.457 7.457 0 0 1-2.878.573zm4.12-1.235c-.075-.438-.468-2.564-1.435-5.175 2.38-.374 4.442.267 4.594.316a7.24 7.24 0 0 1-3.159 4.859z" fill-rule="evenodd"/></svg>

<svg xmlns="http://www.w3.org/2000/svg" xmlns:xlink="http://www.w3.org/1999/xlink" preserveaspectratio="xMidYMid" width="18" height="17" viewbox="0 0 18 17">
  <defs>
  </defs>
  <path d="M17.085,6.783 C16.972,6.238 16.802,5.701 16.581,5.188 C16.365,4.685 16.097,4.200 15.785,3.747 C15.477,3.298 15.122,2.876 14.732,2.492 C14.342,2.108 13.912,1.760 13.455,1.457 C12.994,1.150 12.500,0.887 11.988,0.674 C11.467,0.458 10.921,0.291 10.366,0.180 C9.798,0.065 9.213,0.007 8.628,0.007 C8.043,0.007 7.458,0.065 6.890,0.180 C6.335,0.291 5.789,0.458 5.268,0.674 C4.756,0.887 4.262,1.150 3.801,1.457 C3.344,1.760 2.914,2.108 2.524,2.492 C2.134,2.876 1.779,3.298 1.471,3.747 C1.159,4.200 0.891,4.685 0.675,5.188 C0.454,5.701 0.285,6.238 0.171,6.783 C0.055,7.341 -0.004,7.916 -0.004,8.490 C-0.004,9.066 0.055,9.641 0.171,10.199 C0.285,10.744 0.454,11.281 0.675,11.793 C0.891,12.296 1.159,12.782 1.471,13.235 C1.779,13.684 2.134,14.106 2.524,14.489 C2.914,14.873 3.344,15.221 3.801,15.525 C4.262,15.831 4.756,16.094 5.268,16.307 C5.789,16.524 6.335,16.689 6.890,16.801 C7.458,16.917 8.043,16.974 8.628,16.974 C9.213,16.974 9.798,16.917 10.366,16.801 C10.921,16.689 11.467,16.524 11.988,16.307 C12.500,16.094 12.994,15.831 13.455,15.525 C13.912,15.221 14.342,14.873 14.732,14.489 C15.122,14.106 15.477,13.684 15.785,13.235 C16.097,12.782 16.365,12.296 16.581,11.793 C16.802,11.281 16.972,10.744 17.085,10.199 C17.201,9.641 17.260,9.066 17.260,8.490 C17.260,7.916 17.201,7.341 17.085,6.783 ZM15.998,8.419 C15.891,8.395 13.396,7.868 10.863,8.181 C10.811,8.056 10.759,7.932 10.704,7.807 C10.551,7.452 10.386,7.101 10.214,6.756 C13.125,5.588 14.307,3.908 14.321,3.888 C15.355,5.123 15.981,6.699 15.998,8.419 ZM13.497,3.053 C13.479,3.082 12.429,4.652 9.646,5.676 C8.386,3.402 7.002,1.594 6.891,1.450 C7.448,1.318 8.029,1.246 8.628,1.246 C10.495,1.246 12.198,1.929 13.497,3.053 ZM6.863,1.456 C6.862,1.457 6.861,1.457 6.861,1.457 C6.861,1.457 6.853,1.459 6.839,1.462 C6.847,1.460 6.855,1.458 6.863,1.456 ZM5.483,1.938 C5.581,2.067 6.944,3.884 8.220,6.113 C4.680,7.036 1.608,7.001 1.414,6.998 C1.893,4.753 3.427,2.893 5.483,1.938 ZM1.256,8.490 C1.256,8.413 1.260,8.337 1.262,8.261 C1.392,8.264 5.035,8.345 8.831,7.229 C9.042,7.635 9.244,8.049 9.429,8.460 C9.331,8.487 9.235,8.516 9.138,8.547 C5.160,9.811 3.142,13.329 3.142,13.329 C3.142,13.329 3.144,13.330 3.145,13.332 C1.971,12.049 1.256,10.351 1.256,8.490 ZM8.628,15.735 C6.844,15.735 5.208,15.112 3.932,14.075 C4.029,14.153 4.097,14.202 4.097,14.202 C4.097,14.202 5.510,11.173 9.883,9.676 C9.899,9.670 9.915,9.665 9.931,9.661 C10.969,12.310 11.397,14.528 11.506,15.162 C10.622,15.531 9.649,15.735 8.628,15.735 ZM12.748,14.500 C12.673,14.062 12.280,11.936 11.313,9.325 C13.693,8.951 15.755,9.592 15.907,9.641 C15.579,11.660 14.403,13.401 12.748,14.500 Z" id="dribbble" fill-rule="evenodd"/>
</svg>
